X: 38411
T: Star Of Munster, The
R: reel
M: 4/4
K: Adorian
|:cBAc BAGB|AGEF GEDG|EAAG ABcd|eaaf gfed|
cBAc BAGB|AGEF GEDG|EAAG ABcd|ecdB A4:|
|:a3a ageg|agab agef|g3a ged2|gfga gege|
a3a ageg|agab agef|g4a4|b3a ged2:|

